Newaita-dark/apps/22/preferences-system-privacy.svg

<svg height="22" viewBox="0 0 22 22" width="22" xmlns="http://www.w3.org/2000/svg" xmlns:xlink="http://www.w3.org/1999/xlink"><linearGradient id="a"><stop offset="0" stop-opacity=".313726"/><stop offset=".222222" stop-opacity=".27451"/><stop offset="1" stop-opacity="0"/></linearGradient><radialGradient id="b" cx="450.908936" cy="189.579361" gradientTransform="matrix(.00000012 -.0537161 -.0966889 -.00000007 30.609667 43.721789)" gradientUnits="userSpaceOnUse" r="21.166656" xlink:href="#a"/><radialGradient id="c" cx="450.908936" cy="189.579361" gradientTransform="matrix(-.00000012 .0537161 .0966889 .00000007 -8.779457 -5.175144)" gradientUnits="userSpaceOnUse" r="21.166656" xlink:href="#a"/><radialGradient id="d" cx="450.908936" cy="189.579361" gradientTransform="matrix(-.00000012 -.0537161 .0966889 -.00000007 -8.779457 43.721789)" gradientUnits="userSpaceOnUse" r="21.166656" xlink:href="#a"/><radialGradient id="e" cx="450.908936" cy="189.579361" gradientTransform="matrix(.00000012 .0537161 -.0966889 .00000007 30.609666 -5.175144)" gradientUnits="userSpaceOnUse" r="21.166656" xlink:href="#a"/><linearGradient id="f" gradientTransform="matrix(.00918504 0 0 .0429729 8.569953 9.239164)" gradientUnits="userSpaceOnUse" x1="255.323059" x2="255.323044" y1="233.5" y2="254.666656"><stop offset="0" stop-opacity=".27451"/><stop offset="1" stop-opacity="0"/></linearGradient><linearGradient id="g" gradientUnits="userSpaceOnUse" x1="254" x2="254" y1="-168.666672" y2="233.5"><stop offset="0" stop-color="#616161"/><stop offset="1" stop-color="#424242"/></linearGradient><linearGradient id="h" gradientUnits="userSpaceOnUse" x1="10.915104" x2="10.91510469356" y1="19.27333401286" y2="1.99108548985"><stop offset="0" stop-color="#ab47bc"/><stop offset="1" stop-color="#ba68c8"/></linearGradient><path d="m12.507812 19.273438h1.816407v-.910157h-1.816407zm0 0" fill="url(#b)"/><path d="m9.324219 19.273438h-1.820313v.910156h1.820313zm0 0" fill="url(#c)"/><path d="m9.324219 19.273438h-1.820313v-.910157h1.820313zm0 0" fill="url(#d)"/><path d="m12.507812 19.273438h1.816407v.910156h-1.816407zm0 0" fill="url(#e)"/><path d="m9.324219 19.046875h3.183593v1.136719h-3.183593zm0 0" fill="url(#f)"/><path d="m253.975747-168.640791c111.080301 0 201.071707 89.991407 201.071707 201.071708s-89.991406 201.071708-201.071707 201.071708c-110.989402 0-201.071708-89.991407-201.071708-201.071708s90.082306-201.071708 201.071708-201.071708zm0 0" fill="url(#g)" stroke="#333" stroke-linecap="round" stroke-width="3" transform="matrix(.0429729 0 0 .0429729 0 9.239163)"/><path d="m10.914062 19.214844c-4.785156 0-8.640624-3.851563-8.640624-8.640625 0-.027344 0-.054688 0-.082031.046874 4.746093 3.882812 8.554687 8.640624 8.554687 4.761719 0 8.597657-3.808594 8.640626-8.554687v.082031c0 4.789062-3.851563 8.640625-8.640626 8.640625zm0 0" fill-opacity=".196078"/><path d="m10.914062 2.046875c-4.785156 0-8.640624 3.855469-8.640624 8.640625v.085938c.046874-4.746094 3.882812-8.554688 8.640624-8.554688 4.761719 0 8.597657 3.808594 8.640626 8.554688 0-.027344 0-.054688 0-.085938 0-4.785156-3.851563-8.640625-8.640626-8.640625zm0 0" fill="#fff" fill-opacity=".392157"/><path d="m10.914062 1.925781c-4.820312 0-8.703124 3.882813-8.703124 8.707031 0 4.820313 3.882812 8.703126 8.703124 8.703126 4.824219 0 8.707032-3.882813 8.707032-8.703126 0-4.824218-3.882813-8.707031-8.707032-8.707031zm0 .128907c4.753907 0 8.578126 3.824218 8.578126 8.578124 0 4.75-3.824219 8.574219-8.578126 8.574219-4.75 0-8.574218-3.824219-8.574218-8.574219 0-4.753906 3.824218-8.578124 8.574218-8.578124zm0 0" fill="#212121"/><path d="m5.457031 7.902344c-.503906 0-.910156.40625-.910156.910156v1.820312.027344c.019531 1.496094 1.429687 2.699219 3.183594 2.699219 1.136719 0 2.730469-.539063 2.730469-1.816406 0-.253907.203124-.457031.453124-.457031.253907 0 .457032.203124.457032.457031 0 1.277343 1.589844 1.816406 2.726562 1.816406 1.753906 0 3.167969-1.203125 3.183594-2.699219 0-.011718 0-.019531 0-.027344v-1.820312c0-.503906-.40625-.910156-.910156-.910156h-2.273438c-.945312 0-1.792968.351562-2.375.910156h-1.613281c-.582031-.558594-1.429687-.910156-2.378906-.910156zm2.273438 1.367187c1.007812 0 1.820312.605469 1.820312 1.363281 0 .753907-.8125 1.363282-1.820312 1.363282-1.007813 0-1.816407-.609375-1.816407-1.363282 0-.757812.808594-1.363281 1.816407-1.363281zm6.367187 0c1.007813 0 1.820313.605469 1.820313 1.363281 0 .753907-.8125 1.363282-1.820313 1.363282-1.007812 0-1.816406-.609375-1.816406-1.363282 0-.757812.808594-1.363281 1.816406-1.363281zm0 0" fill="url(#h)"/><path d="m5.457031 7.902344c-.503906 0-.910156.40625-.910156.910156v.339844c0-.503906.40625-.90625.910156-.90625h2.273438c.949219 0 1.796875.347656 2.378906.90625h1.613281c.582032-.558594 1.429688-.90625 2.375-.90625h2.273438c.503906 0 .910156.402344.910156.90625v-.339844c0-.503906-.40625-.910156-.910156-.910156h-2.273438c-.945312 0-1.792968.351562-2.375.910156h-1.613281c-.582031-.558594-1.429687-.910156-2.378906-.910156zm.46875 2.902344c-.007812.054687-.011719.109374-.011719.167968 0 .757813.808594 1.363282 1.816407 1.363282 1.007812 0 1.820312-.605469 1.820312-1.363282 0-.058594-.003906-.113281-.015625-.167968-.109375.671874-.871094 1.191406-1.804687 1.191406-.929688 0-1.691407-.519532-1.804688-1.191406zm6.367188 0c-.007813.054687-.011719.109374-.011719.167968 0 .757813.808594 1.363282 1.816406 1.363282 1.007813 0 1.820313-.605469 1.820313-1.363282 0-.058594-.003907-.113281-.015625-.167968-.109375.671874-.871094 1.191406-1.804688 1.191406-.929687 0-1.691406-.519532-1.804687-1.191406zm0 0" fill="#fff" fill-opacity=".392157"/><path d="m7.730469 9.269531c-1.007813 0-1.816407.605469-1.816407 1.363281 0 .078126.007813.152344.023438.226563.144531-.648437.890625-1.136719 1.792969-1.136719.90625 0 1.652343.488282 1.796875 1.136719.015625-.074219.023437-.148437.023437-.226563 0-.757812-.8125-1.363281-1.820312-1.363281zm6.367187 0c-1.007812 0-1.816406.605469-1.816406 1.363281 0 .078126.007812.152344.023438.226563.144531-.648437.890624-1.136719 1.792968-1.136719.90625 0 1.652344.488282 1.796875 1.136719.015625-.074219.023438-.148437.023438-.226563 0-.757812-.8125-1.363281-1.820313-1.363281zm-9.550781 1.363281v.453126.027343c.019531 1.5 1.429687 2.703125 3.183594 2.703125 1.136719 0 2.730469-.539062 2.730469-1.820312 0-.25.203124-.453125.453124-.453125.253907 0 .457032.203125.457032.453125 0 1.28125 1.589844 1.820312 2.726562 1.820312 1.753906 0 3.167969-1.203125 3.183594-2.703125 0-.007812 0-.015625 0-.027343v-.453126.027344c-.015625 1.496094-1.429688 2.699219-3.183594 2.699219-1.136718 0-2.726562-.539063-2.726562-1.816406 0-.253907-.203125-.457031-.457032-.457031-.25 0-.453124.203124-.453124.457031 0 1.277343-1.59375 1.816406-2.730469 1.816406-1.753907 0-3.164063-1.203125-3.183594-2.699219 0-.011718 0-.019531 0-.027344zm0 0" fill-opacity=".235294"/><path d="m126.987873-31.10847c-11.726153 0-21.179795 9.453643-21.179795 21.179796v42.359591.636303c.454502 34.814857 33.26955 62.812183 74.083834 62.812183 26.45202 0 63.539387-12.544256 63.539387-42.26869 0-5.908527 4.726821-10.635348 10.544448-10.635348 5.908526 0 10.635348 4.726821 10.635348 10.635348 0 29.724434 36.996467 42.26869 63.448486 42.26869 40.814284 0 73.720233-27.997326 74.083834-62.812183 0-.272701 0-.454502 0-.636303v-42.359591c0-11.726153-9.453642-21.179796-21.179795-21.179796h-52.904039c-21.997899 0-41.723288 8.181037-55.26745 21.179796h-37.541869c-13.544161-12.998759-33.26955-21.179796-55.35835-21.179796zm52.904039 31.815144c23.452306 0 42.359591 14.089563 42.359591 31.724243 0 17.543779-18.907285 31.724243-42.359591 31.724243s-42.268691-14.180464-42.268691-31.724243c0-17.63468 18.816385-31.724243 42.268691-31.724243zm148.167669 0c23.452306 0 42.359591 14.089563 42.359591 31.724243 0 17.543779-18.907285 31.724243-42.359591 31.724243s-42.268691-14.180464-42.268691-31.724243c0-17.63468 18.816385-31.724243 42.268691-31.724243zm0 0" fill="none" stroke="#212121" stroke-linecap="round" stroke-linejoin="round" stroke-width="3" transform="matrix(.0429729 0 0 .0429729 0 9.239163)"/></svg>

<?xml version="1.0" encoding="UTF-8"?>
<svg xmlns="http://www.w3.org/2000/svg" xmlns:xlink="http://www.w3.org/1999/xlink" width="22px" height="22px" viewBox="0 0 22 22" version="1.1">
<defs>
<radialGradient id="radial0" gradientUnits="userSpaceOnUse" cx="450.908936" cy="189.579361" fx="450.908936" fy="189.579361" r="21.166656" gradientTransform="matrix(0.000000119742,-0.0537161,-0.0966889,-0.0000000698078,30.609667,43.721789)">
<stop offset="0" style="stop-color:rgb(0%,0%,0%);stop-opacity:0.313726;"/>
<stop offset="0.222222" style="stop-color:rgb(0%,0%,0%);stop-opacity:0.27451;"/>
<stop offset="1" style="stop-color:rgb(0%,0%,0%);stop-opacity:0;"/>
</radialGradient>
<radialGradient id="radial1" gradientUnits="userSpaceOnUse" cx="450.908936" cy="189.579361" fx="450.908936" fy="189.579361" r="21.166656" gradientTransform="matrix(-0.000000119742,0.0537161,0.0966889,0.0000000698078,-8.779457,-5.175144)">
<stop offset="0" style="stop-color:rgb(0%,0%,0%);stop-opacity:0.313726;"/>
<stop offset="0.222222" style="stop-color:rgb(0%,0%,0%);stop-opacity:0.27451;"/>
<stop offset="1" style="stop-color:rgb(0%,0%,0%);stop-opacity:0;"/>
</radialGradient>
<radialGradient id="radial2" gradientUnits="userSpaceOnUse" cx="450.908936" cy="189.579361" fx="450.908936" fy="189.579361" r="21.166656" gradientTransform="matrix(-0.000000119742,-0.0537161,0.0966889,-0.0000000698078,-8.779457,43.721789)">
<stop offset="0" style="stop-color:rgb(0%,0%,0%);stop-opacity:0.313726;"/>
<stop offset="0.222222" style="stop-color:rgb(0%,0%,0%);stop-opacity:0.27451;"/>
<stop offset="1" style="stop-color:rgb(0%,0%,0%);stop-opacity:0;"/>
</radialGradient>
<radialGradient id="radial3" gradientUnits="userSpaceOnUse" cx="450.908936" cy="189.579361" fx="450.908936" fy="189.579361" r="21.166656" gradientTransform="matrix(0.000000119742,0.0537161,-0.0966889,0.0000000698078,30.609666,-5.175144)">
<stop offset="0" style="stop-color:rgb(0%,0%,0%);stop-opacity:0.313726;"/>
<stop offset="0.222222" style="stop-color:rgb(0%,0%,0%);stop-opacity:0.27451;"/>
<stop offset="1" style="stop-color:rgb(0%,0%,0%);stop-opacity:0;"/>
</radialGradient>
<linearGradient id="linear0" gradientUnits="userSpaceOnUse" x1="255.323059" y1="233.5" x2="255.323044" y2="254.666656" gradientTransform="matrix(0.00918504,0,0,0.0429729,8.569953,9.239164)">
<stop offset="0" style="stop-color:rgb(0%,0%,0%);stop-opacity:0.27451;"/>
<stop offset="1" style="stop-color:rgb(0%,0%,0%);stop-opacity:0;"/>
</linearGradient>
<linearGradient id="linear1" gradientUnits="userSpaceOnUse" x1="254" y1="-168.666672" x2="254" y2="233.5" >
<stop offset="0" style="stop-color:rgb(38.039216%,38.039216%,38.039216%);stop-opacity:1;"/>
<stop offset="1" style="stop-color:rgb(25.882354%,25.882354%,25.882354%);stop-opacity:1;"/>
</linearGradient>
<linearGradient id="linear2" gradientUnits="userSpaceOnUse" x1="960" y1="1695.118164" x2="960.000061" y2="175.118118" gradientTransform="matrix(0.0113699,0,0,0.0113699,0.0000000157567,0.0000104914)">
<stop offset="0" style="stop-color:rgb(67.058825%,27.843139%,73.725492%);stop-opacity:1;"/>
<stop offset="1" style="stop-color:rgb(72.941178%,40.784314%,78.431374%);stop-opacity:1;"/>
</linearGradient>
</defs>
<g id="surface1">
<path style=" stroke:none;fill-rule:nonzero;fill:url(#radial0);" d="M 12.507812 19.273438 L 14.324219 19.273438 L 14.324219 18.363281 L 12.507812 18.363281 Z M 12.507812 19.273438 "/>
<path style=" stroke:none;fill-rule:nonzero;fill:url(#radial1);" d="M 9.324219 19.273438 L 7.503906 19.273438 L 7.503906 20.183594 L 9.324219 20.183594 Z M 9.324219 19.273438 "/>
<path style=" stroke:none;fill-rule:nonzero;fill:url(#radial2);" d="M 9.324219 19.273438 L 7.503906 19.273438 L 7.503906 18.363281 L 9.324219 18.363281 Z M 9.324219 19.273438 "/>
<path style=" stroke:none;fill-rule:nonzero;fill:url(#radial3);" d="M 12.507812 19.273438 L 14.324219 19.273438 L 14.324219 20.183594 L 12.507812 20.183594 Z M 12.507812 19.273438 "/>
<path style=" stroke:none;fill-rule:nonzero;fill:url(#linear0);" d="M 9.324219 19.046875 L 12.507812 19.046875 L 12.507812 20.183594 L 9.324219 20.183594 Z M 9.324219 19.046875 "/>
<path style="fill-rule:nonzero;fill:url(#linear1);stroke-width:3;stroke-linecap:round;stroke-linejoin:miter;stroke:rgb(20%,20%,20%);stroke-opacity:1;stroke-miterlimit:4;" d="M 253.975747 -168.640791 C 365.056048 -168.640791 455.047454 -78.649384 455.047454 32.430917 C 455.047454 143.511218 365.056048 233.502625 253.975747 233.502625 C 142.986345 233.502625 52.904039 143.511218 52.904039 32.430917 C 52.904039 -78.649384 142.986345 -168.640791 253.975747 -168.640791 Z M 253.975747 -168.640791 " transform="matrix(0.0429729,0,0,0.0429729,0,9.239163)"/>
<path style=" stroke:none;fill-rule:nonzero;fill:rgb(0%,0%,0%);fill-opacity:0.196078;" d="M 10.914062 19.214844 C 6.128906 19.214844 2.273438 15.363281 2.273438 10.574219 C 2.273438 10.546875 2.273438 10.519531 2.273438 10.492188 C 2.320312 15.238281 6.15625 19.046875 10.914062 19.046875 C 15.675781 19.046875 19.511719 15.238281 19.554688 10.492188 C 19.554688 10.519531 19.554688 10.546875 19.554688 10.574219 C 19.554688 15.363281 15.703125 19.214844 10.914062 19.214844 Z M 10.914062 19.214844 "/>
<path style=" stroke:none;fill-rule:nonzero;fill:rgb(100%,100%,100%);fill-opacity:0.392157;" d="M 10.914062 2.046875 C 6.128906 2.046875 2.273438 5.902344 2.273438 10.6875 C 2.273438 10.71875 2.273438 10.746094 2.273438 10.773438 C 2.320312 6.027344 6.15625 2.21875 10.914062 2.21875 C 15.675781 2.21875 19.511719 6.027344 19.554688 10.773438 C 19.554688 10.746094 19.554688 10.71875 19.554688 10.6875 C 19.554688 5.902344 15.703125 2.046875 10.914062 2.046875 Z M 10.914062 2.046875 "/>
<path style=" stroke:none;fill-rule:nonzero;fill:rgb(12.941177%,12.941177%,12.941177%);fill-opacity:1;" d="M 10.914062 1.925781 C 6.09375 1.925781 2.210938 5.808594 2.210938 10.632812 C 2.210938 15.453125 6.09375 19.335938 10.914062 19.335938 C 15.738281 19.335938 19.621094 15.453125 19.621094 10.632812 C 19.621094 5.808594 15.738281 1.925781 10.914062 1.925781 Z M 10.914062 2.054688 C 15.667969 2.054688 19.492188 5.878906 19.492188 10.632812 C 19.492188 15.382812 15.667969 19.207031 10.914062 19.207031 C 6.164062 19.207031 2.339844 15.382812 2.339844 10.632812 C 2.339844 5.878906 6.164062 2.054688 10.914062 2.054688 Z M 10.914062 2.054688 "/>
<path style=" stroke:none;fill-rule:nonzero;fill:url(#linear2);" d="M 5.457031 7.902344 C 4.953125 7.902344 4.546875 8.308594 4.546875 8.8125 L 4.546875 10.632812 C 4.546875 10.640625 4.546875 10.648438 4.546875 10.660156 C 4.566406 12.15625 5.976562 13.359375 7.730469 13.359375 C 8.867188 13.359375 10.460938 12.820312 10.460938 11.542969 C 10.460938 11.289062 10.664062 11.085938 10.914062 11.085938 C 11.167969 11.085938 11.371094 11.289062 11.371094 11.542969 C 11.371094 12.820312 12.960938 13.359375 14.097656 13.359375 C 15.851562 13.359375 17.265625 12.15625 17.28125 10.660156 C 17.28125 10.648438 17.28125 10.640625 17.28125 10.632812 L 17.28125 8.8125 C 17.28125 8.308594 16.875 7.902344 16.371094 7.902344 L 14.097656 7.902344 C 13.152344 7.902344 12.304688 8.253906 11.722656 8.8125 L 10.109375 8.8125 C 9.527344 8.253906 8.679688 7.902344 7.730469 7.902344 Z M 7.730469 9.269531 C 8.738281 9.269531 9.550781 9.875 9.550781 10.632812 C 9.550781 11.386719 8.738281 11.996094 7.730469 11.996094 C 6.722656 11.996094 5.914062 11.386719 5.914062 10.632812 C 5.914062 9.875 6.722656 9.269531 7.730469 9.269531 Z M 14.097656 9.269531 C 15.105469 9.269531 15.917969 9.875 15.917969 10.632812 C 15.917969 11.386719 15.105469 11.996094 14.097656 11.996094 C 13.089844 11.996094 12.28125 11.386719 12.28125 10.632812 C 12.28125 9.875 13.089844 9.269531 14.097656 9.269531 Z M 14.097656 9.269531 "/>
<path style=" stroke:none;fill-rule:nonzero;fill:rgb(100%,100%,100%);fill-opacity:0.392157;" d="M 5.457031 7.902344 C 4.953125 7.902344 4.546875 8.308594 4.546875 8.8125 L 4.546875 9.152344 C 4.546875 8.648438 4.953125 8.246094 5.457031 8.246094 L 7.730469 8.246094 C 8.679688 8.246094 9.527344 8.59375 10.109375 9.152344 L 11.722656 9.152344 C 12.304688 8.59375 13.152344 8.246094 14.097656 8.246094 L 16.371094 8.246094 C 16.875 8.246094 17.28125 8.648438 17.28125 9.152344 L 17.28125 8.8125 C 17.28125 8.308594 16.875 7.902344 16.371094 7.902344 L 14.097656 7.902344 C 13.152344 7.902344 12.304688 8.253906 11.722656 8.8125 L 10.109375 8.8125 C 9.527344 8.253906 8.679688 7.902344 7.730469 7.902344 Z M 5.925781 10.804688 C 5.917969 10.859375 5.914062 10.914062 5.914062 10.972656 C 5.914062 11.730469 6.722656 12.335938 7.730469 12.335938 C 8.738281 12.335938 9.550781 11.730469 9.550781 10.972656 C 9.550781 10.914062 9.546875 10.859375 9.535156 10.804688 C 9.425781 11.476562 8.664062 11.996094 7.730469 11.996094 C 6.800781 11.996094 6.039062 11.476562 5.925781 10.804688 Z M 12.292969 10.804688 C 12.285156 10.859375 12.28125 10.914062 12.28125 10.972656 C 12.28125 11.730469 13.089844 12.335938 14.097656 12.335938 C 15.105469 12.335938 15.917969 11.730469 15.917969 10.972656 C 15.917969 10.914062 15.914062 10.859375 15.902344 10.804688 C 15.792969 11.476562 15.03125 11.996094 14.097656 11.996094 C 13.167969 11.996094 12.40625 11.476562 12.292969 10.804688 Z M 12.292969 10.804688 "/>
<path style=" stroke:none;fill-rule:nonzero;fill:rgb(0%,0%,0%);fill-opacity:0.235294;" d="M 7.730469 9.269531 C 6.722656 9.269531 5.914062 9.875 5.914062 10.632812 C 5.914062 10.710938 5.921875 10.785156 5.9375 10.859375 C 6.082031 10.210938 6.828125 9.722656 7.730469 9.722656 C 8.636719 9.722656 9.382812 10.210938 9.527344 10.859375 C 9.542969 10.785156 9.550781 10.710938 9.550781 10.632812 C 9.550781 9.875 8.738281 9.269531 7.730469 9.269531 Z M 14.097656 9.269531 C 13.089844 9.269531 12.28125 9.875 12.28125 10.632812 C 12.28125 10.710938 12.289062 10.785156 12.304688 10.859375 C 12.449219 10.210938 13.195312 9.722656 14.097656 9.722656 C 15.003906 9.722656 15.75 10.210938 15.894531 10.859375 C 15.910156 10.785156 15.917969 10.710938 15.917969 10.632812 C 15.917969 9.875 15.105469 9.269531 14.097656 9.269531 Z M 4.546875 10.632812 L 4.546875 11.085938 C 4.546875 11.097656 4.546875 11.105469 4.546875 11.113281 C 4.566406 12.613281 5.976562 13.816406 7.730469 13.816406 C 8.867188 13.816406 10.460938 13.277344 10.460938 11.996094 C 10.460938 11.746094 10.664062 11.542969 10.914062 11.542969 C 11.167969 11.542969 11.371094 11.746094 11.371094 11.996094 C 11.371094 13.277344 12.960938 13.816406 14.097656 13.816406 C 15.851562 13.816406 17.265625 12.613281 17.28125 11.113281 C 17.28125 11.105469 17.28125 11.097656 17.28125 11.085938 L 17.28125 10.632812 C 17.28125 10.640625 17.28125 10.648438 17.28125 10.660156 C 17.265625 12.15625 15.851562 13.359375 14.097656 13.359375 C 12.960938 13.359375 11.371094 12.820312 11.371094 11.542969 C 11.371094 11.289062 11.167969 11.085938 10.914062 11.085938 C 10.664062 11.085938 10.460938 11.289062 10.460938 11.542969 C 10.460938 12.820312 8.867188 13.359375 7.730469 13.359375 C 5.976562 13.359375 4.566406 12.15625 4.546875 10.660156 C 4.546875 10.648438 4.546875 10.640625 4.546875 10.632812 Z M 4.546875 10.632812 "/>
<path style="fill:none;stroke-width:3;stroke-linecap:round;stroke-linejoin:round;stroke:rgb(12.941177%,12.941177%,12.941177%);stroke-opacity:1;stroke-miterlimit:4;" d="M 126.987873 -31.10847 C 115.26172 -31.10847 105.808078 -21.654827 105.808078 -9.928674 L 105.808078 32.430917 C 105.808078 32.612718 105.808078 32.794519 105.808078 33.06722 C 106.26258 67.882077 139.077628 95.879403 179.891912 95.879403 C 206.343932 95.879403 243.431299 83.335147 243.431299 53.610713 C 243.431299 47.702186 248.15812 42.975365 253.975747 42.975365 C 259.884273 42.975365 264.611095 47.702186 264.611095 53.610713 C 264.611095 83.335147 301.607562 95.879403 328.059581 95.879403 C 368.873865 95.879403 401.779814 67.882077 402.143415 33.06722 C 402.143415 32.794519 402.143415 32.612718 402.143415 32.430917 L 402.143415 -9.928674 C 402.143415 -21.654827 392.689773 -31.10847 380.96362 -31.10847 L 328.059581 -31.10847 C 306.061682 -31.10847 286.336293 -22.927433 272.792131 -9.928674 L 235.250262 -9.928674 C 221.706101 -22.927433 201.980712 -31.10847 179.891912 -31.10847 Z M 179.891912 0.706674 C 203.344218 0.706674 222.251503 14.796237 222.251503 32.430917 C 222.251503 49.974696 203.344218 64.15516 179.891912 64.15516 C 156.439606 64.15516 137.623221 49.974696 137.623221 32.430917 C 137.623221 14.796237 156.439606 0.706674 179.891912 0.706674 Z M 328.059581 0.706674 C 351.511887 0.706674 370.419172 14.796237 370.419172 32.430917 C 370.419172 49.974696 351.511887 64.15516 328.059581 64.15516 C 304.607275 64.15516 285.79089 49.974696 285.79089 32.430917 C 285.79089 14.796237 304.607275 0.706674 328.059581 0.706674 Z M 328.059581 0.706674 " transform="matrix(0.0429729,0,0,0.0429729,0,9.239163)"/>
</g>
</svg>
